X:1
T:Title
%%score { 1 | 2 }
L:1/8
Q:1/4=100
M:4/4
K:G
V:1 treble nm="Grand Piano"
V:2 bass 
V:1
 [B,D]>[B,D] [B,G]>[CA] [DB]2 [DG]2 | A4 E4 | F>F F>E D2 [Ec]2 | [DB]6 z2 | %4
w: C.~Austin~Miles * * * * *||||
 [B,D]>[B,D] [B,G]>[CA] [DB]2 [DG]2 | [CA]4 [CE]2 [Ec]>[Ec] | B2 A2 G2 F2 | G6 z2 | %8
w: ||||
 [FA]>[FA] [FA]>[GB] [Fc]2 [Fd]2 | B6 z2 | G>G G>G [^CB]2 [CA]2 | A6 z2 | B>B B>c d2 B2 | %13
w: |||||
 [EA]4 [CE]2 [Ec]>[Ec] | B2 A2 G2 F2 | G6 z2 |] %16
w: |||
V:2
 [G,,G,]>[G,,G,] [G,,G,]>[G,,G,] [G,,G,]2 [B,,G,]2 | [C,E,C]4 [C,A,C]4 | %2
 [D,A,C]>[D,A,C] [D,A,C]>[D,G,C] [D,F,C]2 [D,F,]2 | [G,,G,]6 z2 | %4
 [G,,G,]>[G,,G,] [G,,G,]>[G,,G,] [G,,G,]2 [B,,G,]2 | [C,E,]4 [C,G,]2 [C,G,]>[C,G,] | %6
 [D,G,D]2 [D,CD]2 [D,B,D]2 [D,A,D]2 | [G,B,D]6 z2 | [D,D]>[D,D] [D,D]>[D,D] [D,D]2 [D,D]2 | %9
 [G,DG]6 z2 | [E,A,^C]>[E,A,C] [E,A,C]>[E,A,C] [A,,G,]2 [A,,G,]2 | [D,F,D]6 z2 | %12
 [G,D]>[G,D] [G,D]>[G,A,D] [G,B,D]2 [G,DG]2 | [C,C]4 [C,G,]2 [C,G,]>[C,G,] | %14
 [D,G,D]2 [D,CD]2 [D,B,D]2 [D,A,D]2 | [G,B,D]6 z2 |] %16

